X: 13106
T: Firefly, The
R: hornpipe
M: 4/4
K: Fmajor
(3FGA|:B>AB>c B>dc>B|A>BG>A F>G_E>F|D>FB>F G>_E_e>d|
(3cdc (3BAG F2 (3FGA|B>AB>c B>dc>B|A>BG>A F>G_E>F|
D>FB>d d>cB>A|1 c2B2B2 (3FGA:|2 c2B2B2 F>_E||
|:(3DFB d2 (3Bdf b2|b3a g>f_e>d|_e>d_e>f _e>dc>B|
A>cB>G F2 F>_E|(3DFB d2 (3 Bdf b2|b3a g>f_e>d|
_e>dc>B A>fg>a|1 b2b2b2 F>_E:|2 b2b2b2||

